hosted_logos/sphereex.svg

<svg xmlns="http://www.w3.org/2000/svg" role="img" viewBox="137.25 138.25 507.00 410.00"><title>SphereEx (member) logo</title><path fill="#27339F" fill-rule="evenodd" d="M381.002 209c31.219 0 62.438 5.955 86.259 17.864 39.921 19.958 46.398 50.306 19.429 73.636-5.22-4.516-11.692-8.768-19.417-12.631-23.585-11.794-54.425-17.75-85.337-17.868l-.937-.001.003-61z" clip-rule="evenodd"/><path fill="#27339F" fill-rule="evenodd" d="M294.739 252.135c23.822 11.909 55.043 17.864 86.263 17.864l-.004 60.999c-31.219 0-62.438-5.955-86.259-17.864-39.921-19.957-46.398-50.306-19.429-73.636 5.223 4.518 11.699 8.772 19.429 12.637z" clip-rule="evenodd"/><path fill="#F7651C" fill-rule="evenodd" d="M467.272 313.13c7.725-3.863 14.198-8.115 19.417-12.63 26.97 23.328 20.493 53.677-19.428 73.635-23.822 11.909-55.043 17.864-86.264 17.864l.002-61c31.225 0 62.451-5.956 86.273-17.869zm-191.961-73.631c-26.966-23.326-20.495-53.672 19.417-73.63 23.585-11.794 54.425-17.749 85.337-17.867l.938-.002v61c-31.226-.001-62.452 5.956-86.275 17.869-7.622 3.811-14.025 8.002-19.208 12.45l-.209.18z" clip-rule="evenodd"/><path fill="#141A52" d="M178.621 454.081c12.051 0 17.304 4.944 19.57 8.549h14.111c-2.163-9.373-10.712-20.291-33.681-20.291-17.407 0-29.252 7.828-29.252 20.909s10.403 20.188 24.926 21.527l12.978 1.339c7.519.927 12.669 3.193 12.669 10.197 0 5.871-5.871 10.094-16.995 10.094-13.39 0-19.261-6.18-21.218-10.815H147c2.781 10.403 12.154 22.557 35.947 22.557 20.703 0 31.106-9.579 31.106-22.763 0-15.244-11.33-21.115-25.853-22.454-4.944-.515-8.343-.927-12.875-1.339-7.725-.927-11.948-3.811-11.948-8.755 0-5.356 5.253-8.755 15.244-8.755zm56.638 54.796c1.03 2.06 6.695 9.064 18.025 9.064 13.596 0 24.72-10.197 24.72-27.192s-11.124-27.192-24.72-27.192c-11.124 0-17.098 7.416-17.922 9.373v-8.24h-13.081v73.954h12.978v-29.767zm-.103-18.128c0-8.961 5.768-15.656 14.729-15.656 9.064 0 14.832 6.695 14.832 15.656 0 8.858-5.768 15.656-14.832 15.656-8.961 0-14.729-6.798-14.729-15.656zm63.018-1.751c0-8.137 5.15-13.699 13.081-13.699 7.828 0 12.669 5.459 12.669 13.699v27.81h13.287v-30.385c0-13.287-8.652-22.866-21.733-22.866-9.476 0-15.347 6.18-17.304 9.888V441h-13.081v75.808h13.081v-27.81zm72.619-25.647c-15.965 0-27.295 11.227-27.295 27.398 0 15.656 11.433 27.398 28.325 27.398 17.716 0 24.823-11.227 25.647-16.583h-12.978c-.927 1.442-4.326 5.665-12.669 5.665-8.652 0-14.626-6.18-15.141-14.317h41.406v-1.442c0-16.995-11.227-28.119-27.295-28.119zm0 10.197c6.695 0 11.536 3.708 13.493 10.3h-27.192c1.648-6.489 6.592-10.3 13.699-10.3zm46.971 15.862c0-8.24 4.017-11.948 15.141-11.948h13.905v-13.081h-12.154c-11.536 0-15.553 6.077-16.892 9.064v-8.755h-13.081v52.118h13.081V489.41zm57.531-26.059c-15.965 0-27.295 11.227-27.295 27.398 0 15.656 11.433 27.398 28.325 27.398 17.716 0 24.823-11.227 25.647-16.583h-12.978c-.927 1.442-4.326 5.665-12.669 5.665-8.652 0-14.626-6.18-15.141-14.317h41.406v-1.442c0-16.995-11.227-28.119-27.295-28.119zm0 10.197c6.695 0 11.536 3.708 13.493 10.3h-27.192c1.648-6.489 6.592-10.3 13.699-10.3zm35.434 43.26h63.345v-12.257h-49.543v-20.188h27.089v-12.051h-27.089v-16.686h45.423v-11.948h-59.225v73.13z"/><path fill="#141A52" d="M618.771 516.808h16.171l-22.969-26.574 22.969-25.544h-15.244l-15.244 16.995-14.729-16.995h-16.892l23.175 26.368-23.072 25.75h15.141l15.45-17.201 15.244 17.201z"/></svg>

<svg width="782" height="685" viewBox="0 0 782 685" fill="none" xmlns="http://www.w3.org/2000/svg">
<path fill-rule="evenodd" clip-rule="evenodd" d="M381.002 209C412.221 209 443.44 214.955 467.261 226.864C507.182 246.822 513.659 277.17 486.69 300.5C481.47 295.984 474.998 291.732 467.273 287.869C443.688 276.075 412.848 270.119 381.936 270.001L380.999 270L381.002 209Z" fill="#27339F"/>
<path fill-rule="evenodd" clip-rule="evenodd" d="M294.739 252.135C318.561 264.044 349.782 269.999 381.002 269.999L380.998 330.998C349.779 330.998 318.56 325.043 294.739 313.134C254.818 293.177 248.341 262.828 275.31 239.498C280.533 244.016 287.009 248.27 294.739 252.135Z" fill="#27339F"/>
<path fill-rule="evenodd" clip-rule="evenodd" d="M467.272 313.13C474.997 309.267 481.47 305.015 486.689 300.5C513.659 323.828 507.182 354.177 467.261 374.135C443.439 386.044 412.218 391.999 380.997 391.999L380.999 330.999C412.224 330.999 443.45 325.043 467.272 313.13Z" fill="#F7651C"/>
<path fill-rule="evenodd" clip-rule="evenodd" d="M275.311 239.499C248.345 216.173 254.816 185.827 294.728 165.869C318.313 154.075 349.153 148.12 380.065 148.002L381.003 148V209C349.777 208.999 318.551 214.956 294.728 226.869C287.106 230.68 280.703 234.871 275.52 239.319L275.311 239.499Z" fill="#F7651C"/>
<path d="M178.621 454.081C190.672 454.081 195.925 459.025 198.191 462.63H212.302C210.139 453.257 201.59 442.339 178.621 442.339C161.214 442.339 149.369 450.167 149.369 463.248C149.369 476.329 159.772 483.436 174.295 484.775L187.273 486.114C194.792 487.041 199.942 489.307 199.942 496.311C199.942 502.182 194.071 506.405 182.947 506.405C169.557 506.405 163.686 500.225 161.729 495.59H147C149.781 505.993 159.154 518.147 182.947 518.147C203.65 518.147 214.053 508.568 214.053 495.384C214.053 480.14 202.723 474.269 188.2 472.93C183.256 472.415 179.857 472.003 175.325 471.591C167.6 470.664 163.377 467.78 163.377 462.836C163.377 457.48 168.63 454.081 178.621 454.081Z" fill="#141A52"/>
<path d="M235.259 508.877C236.289 510.937 241.954 517.941 253.284 517.941C266.88 517.941 278.004 507.744 278.004 490.749C278.004 473.754 266.88 463.557 253.284 463.557C242.16 463.557 236.186 470.973 235.362 472.93V464.69H222.281V538.644H235.259V508.877ZM235.156 490.749C235.156 481.788 240.924 475.093 249.885 475.093C258.949 475.093 264.717 481.788 264.717 490.749C264.717 499.607 258.949 506.405 249.885 506.405C240.924 506.405 235.156 499.607 235.156 490.749Z" fill="#141A52"/>
<path d="M298.174 488.998C298.174 480.861 303.324 475.299 311.255 475.299C319.083 475.299 323.924 480.758 323.924 488.998V516.808H337.211V486.423C337.211 473.136 328.559 463.557 315.478 463.557C306.002 463.557 300.131 469.737 298.174 473.445V441H285.093V516.808H298.174V488.998Z" fill="#141A52"/>
<path d="M370.793 463.351C354.828 463.351 343.498 474.578 343.498 490.749C343.498 506.405 354.931 518.147 371.823 518.147C389.539 518.147 396.646 506.92 397.47 501.564H384.492C383.565 503.006 380.166 507.229 371.823 507.229C363.171 507.229 357.197 501.049 356.682 492.912H398.088V491.47C398.088 474.475 386.861 463.351 370.793 463.351ZM370.793 473.548C377.488 473.548 382.329 477.256 384.286 483.848H357.094C358.742 477.359 363.686 473.548 370.793 473.548Z" fill="#141A52"/>
<path d="M417.764 489.41C417.764 481.17 421.781 477.462 432.905 477.462H446.81V464.381H434.656C423.12 464.381 419.103 470.458 417.764 473.445V464.69H404.683V516.808H417.764V489.41Z" fill="#141A52"/>
<path d="M475.295 463.351C459.33 463.351 448 474.578 448 490.749C448 506.405 459.433 518.147 476.325 518.147C494.041 518.147 501.148 506.92 501.972 501.564H488.994C488.067 503.006 484.668 507.229 476.325 507.229C467.673 507.229 461.699 501.049 461.184 492.912H502.59V491.47C502.59 474.475 491.363 463.351 475.295 463.351ZM475.295 473.548C481.99 473.548 486.831 477.256 488.788 483.848H461.596C463.244 477.359 468.188 473.548 475.295 473.548Z" fill="#141A52"/>
<path d="M510.729 516.808H574.074V504.551H524.531V484.363H551.62V472.312H524.531V455.626H569.954V443.678H510.729V516.808Z" fill="#141A52"/>
<path d="M618.771 516.808H634.942L611.973 490.234L634.942 464.69H619.698L604.454 481.685L589.725 464.69H572.833L596.008 491.058L572.936 516.808H588.077L603.527 499.607L618.771 516.808Z" fill="#141A52"/>
</svg>
